X:1
T:We’ll Be Like Him
T:We’ll Be Like Him
T:Robert Lawrence Powell
T:Robert Lawrence Powell, 1919, alt.
T:Public Domain Courtesy of the Cyber Hymnal™
T:Public Domain Courtesy of the Cyber Hymnal™
C:Robert Lawrence Powell
Z:Public Domain
Z:Courtesy of the Cyber Hymnal™
%%score ( 1 2 ) ( 3 4 )
L:1/8
Q:1/4=105
M:4/4
K:Bb
V:1 treble 
V:2 treble 
V:3 bass 
V:4 bass 
V:1
 [B,D]>[CE] | [DF]2 [DB]2 [DB]2 [FB]>[FA] | [EG]2 [Ec]2 [Ec]2 [=EB]>[EB] | [FA]4 [EG]2 [EA]>[EA] | %4
w: 1.~When the|Sav- ior comes for His|chos- en ones, We’ll be|like Him, we’ll be|
w: 2.~Let the|mes- sage rain up- on|hill and plain, We’ll be|like Him, we’ll be|
w: 3.~He’s the|One we love, He’s the|one we prove, We’ll be|like Him, we’ll be|
w: 4.~Tho’ He|tar- ry long, this will|be our song, ~ ~|~ ~ ~ ~|
 [DG]4 [DF]2 [B,D]>[CE] | [DF]2 [DB]2 [Fd]2 [Fc]>[FB] | [Ec]2 [EG]2 [Gc]2 [Fc]>[Fc] | %7
w: like Him; With the|bright day- break when the|dead a- wake; We’ll be|
w: like Him; Send it|far and wide on the|Gos- pel tide; We’ll be|
w: like Him; He’s the|One who cheers thro’ the|wea- ry years; We’ll be|
w: ~ ~ Tho’ the|path be dim we will|cling to Him; We’ll be|
 [=Ed]2 [Ec]2 [EB]2 [EG]2 | F6 ||"^Refrain" [Ff]>[Fe] | [Fd]4 [DB]2 [Ec]>[DB] | %11
w: like Him when He|comes.|||
w: like Him when He|comes.|||
w: like Him when He|comes.|We’ll be|like Him, sing the|
w: like Him when He|comes.|||
 [EA]2 [EG]2 [EG]2 [Fe]>[Fd] | [Ec]4 [EA]2 [EG]>[EA] | [DG]2 [DF]2 [DF]2 [FB]>[Fc] | %14
w: |||
w: |||
w: glad re- frain; We’ll be|like Him when He|comes a- gain; Bless- èd|
w: |||
 [Fd]2 [Bf]2 [Bf]2 [Fe]>[Fd] | [Gc]2 [EG]2 [EG]2 [Gc]>[Gc] | [Ff]2 [Ge]2 [Fd]2 [Ec]2 | B4- [DB]2 |] %18
w: ||||
w: ||||
w: thought to me that His|face I’ll see, And be|like Him when He|comes. *|
w: ||||
V:2
 x2 | x8 | x8 | x8 | x8 | x8 | x8 | x8 | F6 || x2 | x8 | x8 | x8 | x8 | x8 | x8 | x8 | D2 E>E x2 |] %18
V:3
 [B,,F,]>[B,,F,] | [B,,B,]2 [B,,F,]2 [B,,F,]2 [D,B,]>[D,B,] | [E,B,]2 [E,G,]2 [E,G,]2 [C,C]>[C,C] | %3
w: ||* * * We’ll be|
 [F,C]2 [F,C]2 [F,A,]2 [F,C]>[F,C] | [B,,B,]2 [B,,B,]2 [B,,B,]2 [B,,F,]>[B,,F,] | %5
w: like our king when He|comes a- gain; * *|
 [B,,B,]2 [B,,F,]2 [B,,B,]2 [C,A,]>[D,B,] | [E,G,]2 [E,C]2 [E,B,]2 [D,B,]>[D,B,] | %7
w: ||
 [C,B,]2 [C,B,]2 [C,G,]2 [C,B,]2 | ([F,A,]2 [F,A,]>[G,B,][F,A,]>[E,C]) || [D,B,]>[C,A,] | %10
w: ||We’ll be|
 [B,,B,]2 [B,,B,]2 [B,,F,]2 [B,,B,]>[B,,B,] | [E,B,]2 [E,B,]2 [E,B,]2 [C,A,]>[D,_A,] | %12
w: like our king * *||
 [E,G,]2 [E,G,]2 [F,C]2 [F,A,]>[F,C] | [B,,B,]2 [B,,B,]2 [B,,B,]2 [D,B,]>[F,A,] | %14
w: * our king * *||
 B,2 [B,D]2 [B,D]2 [A,C]>B, | [E,E]2 [E,B,]2 [E,B,]2 [E,B,]>[E,B,] | %16
w: When * * * He||
 [D,B,]2 [E,B,]2 [F,B,]2 [F,A,]2 | B,2 G,>G, [B,,F,]2 |] %18
w: |* comes. * *|
V:4
 x2 | x8 | x8 | x8 | x8 | x8 | x8 | x8 | x6 || x2 | x8 | x8 | x8 | x8 | B,2 x7/2 B,/ x2 | x8 | x8 | %17
 B,,4- x2 |] %18

